packages/sources/assets/src/assets/mastercard-id-check.svg

<svg width="58" height="40" viewBox="0 0 58 40" fill="none" xmlns="http://www.w3.org/2000/svg">
<rect x="0.5" y="0.5" width="57" height="39" rx="3.5" fill="white" stroke="#F3F3F3"/>
<path fill-rule="evenodd" clip-rule="evenodd" d="M42.9015 27.0102V24.6857H42.3406V26.034C42.1474 25.7853 41.8463 25.6448 41.5316 25.6565C40.7869 25.6565 40.1833 26.2601 40.1833 27.0048C40.1833 27.7494 40.7869 28.3531 41.5316 28.3531C41.8463 28.3647 42.1474 28.2242 42.3406 27.9756V28.2884H42.9015V27.0102ZM26.1716 25.7212H27.0885V26.2254H26.177V27.412C26.177 27.6708 26.2795 27.8434 26.5491 27.8434C26.7243 27.8302 26.8931 27.7727 27.0399 27.6762L27.2017 28.1562C26.9915 28.2874 26.7484 28.3566 26.5006 28.3558C25.8372 28.3558 25.6053 27.9998 25.6053 27.4012V26.2254H25.0822V25.7212H25.6053V24.9392H26.1716V25.7212ZM18.7127 28.3072V26.6893C18.7318 26.414 18.6315 26.1438 18.4374 25.9477C18.2433 25.7515 17.9743 25.6484 17.6988 25.6645C17.3358 25.6407 16.9886 25.8164 16.7927 26.123C16.6142 25.8256 16.2872 25.6496 15.9406 25.6645C15.6388 25.6493 15.3515 25.795 15.1855 26.0475V25.7293H14.6246V28.3072H15.1909V26.878C15.1665 26.6995 15.2231 26.5195 15.3452 26.387C15.4672 26.2545 15.642 26.1834 15.8219 26.1931C16.1941 26.1931 16.3828 26.4358 16.3828 26.8726V28.3072H16.9491V26.878C16.9257 26.6997 16.9826 26.5203 17.1045 26.388C17.2263 26.2558 17.4005 26.1844 17.5801 26.1931C17.9631 26.1931 18.1464 26.4358 18.1464 26.8726V28.3072H18.7127ZM40.9545 33.625H40.4395L40.4422 30.594H40.0592V35.4479H40.4637V33.9621H40.9788L42.3271 35.4479H42.8152L41.2781 33.7733L42.7882 32.2767H42.3028L40.9545 33.625ZM29.386 32.5652C29.2997 32.644 29.2253 32.7349 29.1649 32.8349L29.1514 30.6102H28.7685V35.4641H29.1514V33.6574C29.1501 33.5111 29.1785 33.3662 29.235 33.2313C29.2874 33.1058 29.3644 32.9921 29.4615 32.8969C29.5581 32.803 29.6728 32.7296 29.7986 32.6812C29.931 32.6302 30.0719 32.6046 30.2138 32.6057C30.3607 32.6028 30.5069 32.6266 30.6453 32.6758C30.7661 32.7196 30.8757 32.7896 30.9662 32.8807C31.0564 32.9731 31.1247 33.0846 31.1658 33.207C31.2125 33.346 31.2352 33.4919 31.2332 33.6385V35.4641H31.6188V33.5198C31.6221 33.3354 31.5892 33.1522 31.5217 32.9805C31.4624 32.8284 31.3704 32.6912 31.2521 32.5787C31.1296 32.4663 30.9855 32.3801 30.8287 32.3252C30.6554 32.2645 30.4729 32.2343 30.2894 32.2362C30.1805 32.2363 30.0721 32.2481 29.9658 32.2713C29.8585 32.2948 29.7544 32.331 29.6556 32.3792C29.5576 32.4284 29.4668 32.491 29.386 32.5652ZM25.8688 30.6776C26.0634 30.6778 26.2573 30.7004 26.4467 30.745C26.6336 30.7878 26.8147 30.853 26.986 30.9392C27.1476 31.0212 27.298 31.1236 27.4336 31.2439C27.5664 31.3618 27.6817 31.498 27.7761 31.6484L27.4336 31.8776C27.3527 31.7538 27.2556 31.6414 27.1451 31.5432C27.0339 31.4438 26.9107 31.3586 26.7783 31.2897C26.6415 31.2193 26.4966 31.1659 26.3469 31.1306C26.1906 31.0929 26.0304 31.0739 25.8696 31.074C25.6011 31.0717 25.3347 31.1212 25.0849 31.2196C24.8489 31.312 24.6342 31.4514 24.4538 31.6295C24.2725 31.8114 24.1294 32.0278 24.0332 32.2659C23.8284 32.7951 23.8284 33.3816 24.0332 33.9108C24.1294 34.149 24.2724 34.3654 24.4538 34.5472C24.6342 34.7253 24.8489 34.8648 25.0849 34.9571C25.3347 35.0556 25.6011 35.105 25.8696 35.1027C26.0293 35.1032 26.1886 35.0851 26.3442 35.0488C26.6442 34.983 26.9226 34.8419 27.1532 34.6389C27.2644 34.5404 27.3615 34.4269 27.4417 34.3018L27.7788 34.5472C27.6808 34.6941 27.5638 34.8274 27.4309 34.9436C27.2956 35.0615 27.1462 35.1621 26.986 35.243C26.82 35.3278 26.6443 35.392 26.4628 35.4344C25.9498 35.5513 25.4135 35.5118 24.9231 35.3212C24.6374 35.2082 24.3771 35.0395 24.1572 34.825C23.9384 34.6075 23.7659 34.3479 23.6503 34.0618C23.4055 33.435 23.4055 32.739 23.6503 32.1122C23.7659 31.8261 23.9384 31.5665 24.1572 31.349C24.3771 31.1345 24.6374 30.9658 24.9231 30.8529C25.2243 30.7348 25.5453 30.6753 25.8688 30.6776ZM25.8688 30.6776L25.8588 30.6776H25.8696L25.8688 30.6776ZM18.2705 30.7315C18.6314 30.7261 18.9906 30.7817 19.3329 30.896C19.6326 30.995 19.9082 31.1558 20.1419 31.3679C20.3645 31.5755 20.5385 31.8296 20.6516 32.1122C20.8897 32.7431 20.8897 33.4391 20.6516 34.0699C20.5386 34.3525 20.3646 34.6067 20.1419 34.8142C19.9082 35.0263 19.6326 35.1871 19.3329 35.2861C18.9906 35.4004 18.6314 35.456 18.2705 35.4506H16.5473V30.7315H18.2705ZM14.7217 35.4506H15.1343V30.7315H14.7217V35.4506ZM43.306 35.2915H43.2467V35.4506H43.217V35.2915H43.1577V35.2618H43.3087L43.306 35.2915ZM43.5379 35.4506H43.5082V35.2969L43.4543 35.4317H43.4219L43.368 35.2969V35.4506H43.3383V35.2618H43.3842L43.4381 35.3967L43.4921 35.2618H43.5379V35.4506ZM16.9599 35.0596V31.1225L18.2732 31.1279C18.5817 31.1225 18.8889 31.169 19.1819 31.2654C19.4289 31.3485 19.6552 31.4837 19.8453 31.6618C20.0262 31.8362 20.1654 32.0491 20.2525 32.2848C20.4352 32.8086 20.4352 33.3789 20.2525 33.9027C20.1655 34.1377 20.0263 34.3498 19.8453 34.523C19.6547 34.7005 19.4286 34.8356 19.1819 34.9194C18.8883 35.0177 18.5801 35.0651 18.2705 35.0596H16.9599ZM34.1374 32.2362C34.3395 32.2342 34.5398 32.2747 34.7253 32.3549C34.9033 32.4325 35.0631 32.5464 35.1945 32.6893C35.3305 32.8386 35.4366 33.0125 35.5073 33.2016C35.5859 33.4102 35.6261 33.6313 35.626 33.8542V33.9378V34.0133H32.9671C32.9775 34.1832 33.0196 34.3497 33.0912 34.5041C33.156 34.6429 33.2476 34.7676 33.3608 34.8708C33.4715 34.9705 33.6007 35.0475 33.741 35.0974C33.8872 35.1498 34.0415 35.1763 34.1968 35.1756C34.4019 35.179 34.6053 35.1376 34.7927 35.0542C34.969 34.9721 35.1297 34.8599 35.2673 34.7225L35.4723 34.9922C35.379 35.0873 35.276 35.1723 35.1649 35.2457C35.064 35.311 34.9565 35.3653 34.844 35.4075C34.7367 35.4471 34.6255 35.4751 34.5123 35.4911C34.3997 35.5069 34.2862 35.515 34.1725 35.5153C33.9538 35.5179 33.7366 35.4776 33.5334 35.3967C33.3442 35.3209 33.1726 35.2071 33.0291 35.0623C32.8855 34.9148 32.7736 34.7396 32.7001 34.5472C32.6192 34.3356 32.5789 34.1105 32.5815 33.8839C32.5789 33.659 32.6192 33.4357 32.7001 33.2259C32.7709 33.0301 32.88 32.8505 33.021 32.6974C33.1624 32.5513 33.3322 32.4356 33.5199 32.3576C33.7183 32.2721 33.9322 32.228 34.1482 32.2281L34.1374 32.2362ZM33.6952 32.6596C33.8357 32.6031 33.986 32.5747 34.1374 32.576C34.4192 32.5741 34.69 32.6848 34.8898 32.8834C34.99 32.9835 35.0704 33.1015 35.1271 33.2313C35.1892 33.3741 35.2266 33.5263 35.2377 33.6816H32.9698C32.986 33.5274 33.0279 33.377 33.0938 33.2367C33.1549 33.1067 33.2389 32.9888 33.3419 32.8888C33.444 32.7906 33.5639 32.7128 33.6952 32.6596ZM37.9774 32.2362C38.2021 32.2342 38.425 32.2773 38.6327 32.363C38.83 32.4445 39.0062 32.5699 39.1478 32.7297L38.8997 32.9994C38.7801 32.8785 38.6394 32.7807 38.4844 32.7108C38.3219 32.6406 38.1464 32.6057 37.9694 32.6084C37.8035 32.6076 37.6393 32.6406 37.4867 32.7054C37.3405 32.7684 37.2084 32.8601 37.0983 32.9751C36.9821 33.0904 36.8904 33.228 36.8287 33.3796C36.705 33.709 36.705 34.0722 36.8287 34.4016C36.9444 34.7027 37.1782 34.9434 37.4759 35.0677C37.6284 35.1328 37.7927 35.1658 37.9586 35.1648C38.1378 35.1668 38.3153 35.13 38.479 35.0569C38.635 34.9872 38.7774 34.8904 38.8997 34.7711L39.1397 35.0407C38.9974 35.1998 38.8215 35.325 38.6246 35.4075C38.4178 35.4931 38.1959 35.5362 37.972 35.5342C37.7475 35.5369 37.5248 35.4947 37.3168 35.4102C36.9277 35.252 36.6206 34.941 36.4673 34.5499C36.3079 34.1314 36.3079 33.6688 36.4673 33.2502C36.6197 32.8579 36.9269 32.5457 37.3168 32.3872C37.5255 32.2891 37.7523 32.235 37.9828 32.2281L37.9774 32.2362ZM31.8723 25.6565C31.5937 25.6483 31.3329 25.7931 31.1927 26.034V25.7212H30.6372V28.2992H31.1981V26.8538C31.1981 26.4277 31.3815 26.1904 31.7374 26.1904C31.8574 26.1887 31.9765 26.2107 32.088 26.2551L32.2606 25.7158C32.1325 25.67 31.9975 25.6462 31.8615 25.6457L31.8723 25.6565ZM23.5882 25.6565C23.9574 25.6437 24.3224 25.7373 24.6399 25.9261L24.3918 26.3792C24.1455 26.2375 23.867 26.1613 23.5828 26.158C23.2754 26.158 23.092 26.2875 23.092 26.4601C23.092 26.6326 23.2862 26.6812 23.5289 26.7135L23.7986 26.7513C24.3595 26.8322 24.6992 27.0317 24.6992 27.5225C24.6992 28.0133 24.2678 28.3639 23.5235 28.3639C23.1252 28.3748 22.7338 28.2576 22.4071 28.0295L22.6768 27.5926C22.9242 27.7762 23.2263 27.8712 23.5343 27.8623C23.9172 27.8623 24.1222 27.749 24.1222 27.5495C24.1222 27.4039 23.9765 27.323 23.6691 27.2798L23.3995 27.2421C22.8224 27.1612 22.5096 26.9023 22.5096 26.4816C22.5096 25.9693 22.9356 25.6565 23.5882 25.6565ZM39.6628 25.6565C39.3843 25.6483 39.1235 25.7931 38.9833 26.034V25.7212H38.4278V28.2992H38.9887V26.8538C38.9887 26.4277 39.1721 26.1904 39.528 26.1904C39.648 26.1887 39.7671 26.2107 39.8786 26.2551L40.0512 25.7158C39.9231 25.67 39.7881 25.6462 39.6521 25.6457L39.6628 25.6565ZM32.8256 27.9828C32.5639 27.7261 32.4224 27.3711 32.4359 27.0048V26.994C32.4224 26.6277 32.5639 26.2726 32.8256 26.016C33.0874 25.7594 33.4452 25.6249 33.8111 25.6457C34.1479 25.6285 34.4789 25.7382 34.7388 25.9531L34.4691 26.4061C34.2752 26.2583 34.0388 26.1769 33.795 26.1742C33.365 26.209 33.0339 26.568 33.0339 26.9994C33.0339 27.4307 33.365 27.7898 33.795 27.8245C34.0388 27.8218 34.2752 27.7405 34.4691 27.5926L34.7388 28.0457C34.4789 28.2605 34.1479 28.3702 33.8111 28.3531C33.4452 28.3738 33.0874 28.2394 32.8256 27.9828ZM37.6889 27.0048V25.7158H37.128V26.0286C36.9348 25.7799 36.6337 25.6395 36.319 25.6511C35.5744 25.6511 34.9707 26.2547 34.9707 26.9994C34.9707 27.744 35.5744 28.3477 36.319 28.3477C36.6337 28.3593 36.9348 28.2188 37.128 27.9702V28.283H37.6889V27.0048ZM36.4089 26.2718C35.9853 26.2559 35.6267 26.5816 35.6017 27.0048C35.5874 27.2202 35.6637 27.4318 35.8122 27.5884C35.9607 27.7451 36.1679 27.8327 36.3837 27.8299C36.8077 27.8277 37.1521 27.4871 37.1589 27.0632C37.1658 26.6393 36.8325 26.2877 36.4089 26.2718ZM28.8332 25.6565C28.0885 25.6669 27.4933 26.279 27.5037 27.0236C27.5142 27.7683 28.1263 28.3635 28.8709 28.3531C29.2557 28.3666 29.632 28.238 29.928 27.9917L29.6583 27.5765C29.4454 27.7472 29.1816 27.8421 28.9087 27.8461C28.5232 27.8793 28.1813 27.5996 28.1374 27.2151H30.0547V26.9994C30.0547 26.1904 29.5532 25.6511 28.8305 25.6511L28.8332 25.6565ZM29.2891 26.3356C29.1667 26.2183 29.0027 26.1544 28.8332 26.158H28.8224C28.462 26.1457 28.1578 26.4236 28.1374 26.7836H29.4858C29.4822 26.6141 29.4115 26.453 29.2891 26.3356ZM41.6215 26.2772C41.1979 26.2613 40.8392 26.587 40.8143 27.0102C40.8 27.2256 40.8763 27.4371 41.0248 27.5938C41.1733 27.7505 41.3805 27.8381 41.5963 27.8353C42.0202 27.8331 42.3646 27.4925 42.3715 27.0686C42.3783 26.6447 42.0451 26.2931 41.6215 26.2772ZM21.8759 27.0102V25.7212H21.315V26.034C21.1217 25.7853 20.8207 25.6448 20.506 25.6565C19.7613 25.6565 19.1577 26.2601 19.1577 27.0048C19.1577 27.7494 19.7613 28.3531 20.506 28.3531C20.8207 28.3647 21.1217 28.2242 21.315 27.9756V28.2884H21.8759V27.0102ZM20.5959 26.2772C20.1723 26.2613 19.8136 26.587 19.7887 27.0102C19.7744 27.2256 19.8507 27.4371 19.9992 27.5938C20.1477 27.7505 20.3548 27.8381 20.5707 27.8353C20.9946 27.8331 21.339 27.4925 21.3459 27.0686C21.3527 26.6447 21.0195 26.2931 20.5959 26.2772ZM43.8345 27.9243C43.8696 27.9239 43.9044 27.9303 43.937 27.9432C43.968 27.9558 43.9963 27.9741 44.0206 27.9971C44.0443 28.0204 44.0635 28.0478 44.0772 28.078C44.1048 28.1417 44.1048 28.2139 44.0772 28.2776C44.0635 28.3078 44.0443 28.3352 44.0206 28.3585C43.9963 28.3815 43.968 28.3998 43.937 28.4124C43.9047 28.4267 43.8698 28.434 43.8345 28.434C43.7302 28.4332 43.6356 28.3723 43.5918 28.2776C43.5645 28.2139 43.5645 28.1417 43.5918 28.078C43.6056 28.0478 43.6248 28.0204 43.6485 27.9971C43.6727 27.9741 43.7011 27.9558 43.732 27.9432C43.7647 27.9303 43.7995 27.9239 43.8345 27.9243ZM43.9127 28.3639C43.8881 28.3747 43.8614 28.3802 43.8345 28.3801V28.3827C43.8074 28.3818 43.7808 28.3754 43.7563 28.3639C43.7321 28.3539 43.7101 28.3392 43.6916 28.3207C43.6217 28.2444 43.6217 28.1274 43.6916 28.0511C43.7101 28.0325 43.7321 28.0179 43.7563 28.0079C43.7811 27.9974 43.8076 27.9919 43.8345 27.9917C43.8614 27.9917 43.8881 27.9972 43.9127 28.0079C43.936 28.0182 43.957 28.0329 43.9747 28.0511C44.0447 28.1274 44.0447 28.2444 43.9747 28.3207C43.957 28.3389 43.9359 28.3535 43.9127 28.3639ZM43.8507 28.0592C43.8759 28.0579 43.9007 28.0656 43.9208 28.0807C43.9376 28.0946 43.9466 28.1157 43.9451 28.1374C43.9459 28.1555 43.939 28.1731 43.9262 28.1859C43.9106 28.2001 43.8906 28.2086 43.8696 28.2102L43.9478 28.2992H43.8858L43.813 28.2102H43.7887V28.2992H43.7374V28.0618L43.8507 28.0592ZM43.7914 28.1697V28.105L43.8507 28.1212C43.8613 28.118 43.8725 28.118 43.8831 28.1212C43.8869 28.1288 43.8869 28.1378 43.8831 28.1454C43.8869 28.1531 43.8869 28.1621 43.8831 28.1697C43.8725 28.1729 43.8613 28.1729 43.8507 28.1697H43.7914Z" fill="black"/>
<rect x="24.4592" y="6.07629" width="8.49438" height="15.2656" fill="#FF5F00"/>
<path d="M24.9986 13.7105C24.9954 10.7311 26.3628 7.91582 28.7064 6.07631C24.7262 2.94823 19.0103 3.40386 15.5758 7.123C12.1414 10.8421 12.1414 16.5761 15.5758 20.2952C19.0103 24.0144 24.7262 24.47 28.7064 21.3419C26.3635 19.503 24.9962 16.6889 24.9986 13.7105Z" fill="#EB001B"/>
<path d="M44.4143 13.7104C44.4142 17.4273 42.2919 20.8178 38.9487 22.4421C35.6055 24.0663 31.6284 23.6391 28.7064 21.3419C31.0484 19.5014 32.4157 16.6877 32.4157 13.7091C32.4157 10.7305 31.0484 7.91675 28.7064 6.07626C31.6284 3.77903 35.6055 3.35182 38.9487 4.97606C42.2919 6.60031 44.4142 9.99085 44.4143 13.7077V13.7104Z" fill="#F79E1B"/>
</svg>

<svg width="58" height="40" fill="none" xmlns="http://www.w3.org/2000/svg"><rect x=".5" y=".5" width="57" height="39" rx="3.5" fill="#fff" stroke="#F3F3F3"/><path fill-rule="evenodd" clip-rule="evenodd" d="M42.901 27.01v-2.324h-.56v1.348a.978.978 0 0 0-.81-.377 1.348 1.348 0 1 0 0 2.696.979.979 0 0 0 .81-.377v.312h.56V27.01Zm-16.73-1.289h.918v.504h-.912v1.187c0 .259.102.431.372.431.175-.013.344-.07.49-.167l.163.48c-.21.131-.454.2-.701.2-.664 0-.896-.356-.896-.955v-1.176h-.523v-.504h.523v-.782h.567v.782Zm-7.458 2.586V26.69a.96.96 0 0 0-1.014-1.024.998.998 0 0 0-.906.458.946.946 0 0 0-.852-.459.852.852 0 0 0-.756.383v-.318h-.56v2.578h.566v-1.429a.604.604 0 0 1 .63-.685c.373 0 .562.243.562.68v1.434h.566v-1.429a.607.607 0 0 1 .631-.685c.383 0 .566.243.566.68v1.434h.567Zm22.242 5.318h-.515l.002-3.031h-.383v4.854h.405v-1.486h.515l1.348 1.486h.488l-1.537-1.675 1.51-1.496h-.485l-1.348 1.348Zm-11.569-1.06a1.25 1.25 0 0 0-.221.27l-.014-2.225h-.383v4.854h.383v-1.807a1.078 1.078 0 0 1 .084-.426.998.998 0 0 1 .564-.55 1.13 1.13 0 0 1 .415-.075c.147-.003.293.02.431.07a.858.858 0 0 1 .52.531 1.3 1.3 0 0 1 .068.431v1.826h.386V33.52a1.405 1.405 0 0 0-.097-.54 1.112 1.112 0 0 0-.693-.655 1.582 1.582 0 0 0-.863-.054 1.201 1.201 0 0 0-.58.294Zm-3.517-1.887a2.533 2.533 0 0 1 1.117.261c.162.082.312.185.448.305.132.118.248.254.342.404l-.342.23a1.669 1.669 0 0 0-.289-.335 1.791 1.791 0 0 0-.798-.412 2.03 2.03 0 0 0-.477-.057 2.092 2.092 0 0 0-.785.146 1.867 1.867 0 0 0-1.052 1.046 2.279 2.279 0 0 0 0 1.645 1.865 1.865 0 0 0 1.052 1.046c.25.099.516.148.785.146.16 0 .319-.018.474-.054.3-.066.579-.207.81-.41a1.69 1.69 0 0 0 .288-.337l.337.245c-.098.147-.215.28-.348.397a2.3 2.3 0 0 1-.968.49 2.635 2.635 0 0 1-1.54-.113 2.318 2.318 0 0 1-.766-.496 2.281 2.281 0 0 1-.507-.763 2.68 2.68 0 0 1 0-1.95 2.28 2.28 0 0 1 .507-.763c.22-.215.48-.383.766-.496.301-.118.622-.178.946-.175Zm0 0h-.01.01Zm-7.599.053c.361-.005.72.05 1.063.165.3.099.575.26.809.472.223.208.396.462.51.744a2.774 2.774 0 0 1 0 1.958 2.065 2.065 0 0 1-.51.744c-.234.212-.51.373-.81.472-.341.114-.7.17-1.062.165h-1.723v-4.72h1.723Zm-3.548 4.72h.412v-4.72h-.412v4.72Zm28.584-.16h-.06v.16h-.029v-.16h-.06v-.03h.152l-.003.03Zm.232.16h-.03v-.154l-.054.135h-.032l-.054-.135v.154h-.03v-.19h.046l.054.136.054-.135h.046v.189ZM16.96 35.06v-3.938l1.313.006c.309-.006.616.041.909.137.247.084.473.219.663.397.181.174.32.387.408.623a2.456 2.456 0 0 1 0 1.618 1.653 1.653 0 0 1-.408.62c-.19.177-.416.313-.663.396a2.718 2.718 0 0 1-.912.14h-1.31Zm17.177-2.824a1.407 1.407 0 0 1 1.058.453c.136.15.242.324.312.513.079.208.12.43.119.652v.159h-2.659c.01.17.053.337.124.491a1.138 1.138 0 0 0 .65.593c.146.053.3.08.456.079.205.003.408-.038.596-.122.176-.082.337-.194.474-.332l.205.27a1.67 1.67 0 0 1-.628.415 1.57 1.57 0 0 1-.332.084 2.492 2.492 0 0 1-.34.024 1.674 1.674 0 0 1-.639-.118 1.49 1.49 0 0 1-.504-.335 1.511 1.511 0 0 1-.329-.515 1.8 1.8 0 0 1-.119-.663 1.772 1.772 0 0 1 .12-.658 1.55 1.55 0 0 1 .32-.529 1.586 1.586 0 0 1 1.127-.47l-.01.01Zm-.442.424c.14-.057.291-.085.442-.084a1.06 1.06 0 0 1 .753.307c.1.1.18.218.237.348.062.143.1.295.11.45H32.97c.016-.154.058-.304.124-.444a1.19 1.19 0 0 1 .248-.348c.102-.098.222-.176.353-.23Zm4.282-.424a1.68 1.68 0 0 1 .656.127c.197.081.373.207.515.367L38.9 33a1.25 1.25 0 0 0-.93-.391 1.19 1.19 0 0 0-.871.367 1.215 1.215 0 0 0-.27.404 1.45 1.45 0 0 0 0 1.022c.115.3.35.541.647.666.152.065.317.098.483.097.179.002.356-.035.52-.108a1.45 1.45 0 0 0 .42-.286l.24.27a1.444 1.444 0 0 1-.514.367 1.667 1.667 0 0 1-.653.126 1.687 1.687 0 0 1-.655-.124 1.532 1.532 0 0 1-.85-.86 1.826 1.826 0 0 1 0-1.3 1.53 1.53 0 0 1 .85-.863c.209-.098.435-.152.666-.159l-.006.008Zm-6.105-6.58a.76.76 0 0 0-.68.378v-.313h-.555V28.3h.561v-1.445c0-.426.183-.664.54-.664a.91.91 0 0 1 .35.065l.173-.54a1.199 1.199 0 0 0-.4-.07l.011.012Zm-8.284 0c.37-.012.734.081 1.052.27l-.248.453a1.66 1.66 0 0 0-.81-.221c-.307 0-.49.13-.49.302 0 .173.194.221.437.253l.27.038c.56.081.9.28.9.771s-.431.842-1.176.842a1.86 1.86 0 0 1-1.116-.335l.27-.436c.247.183.55.278.857.27.383 0 .588-.114.588-.314 0-.145-.145-.226-.453-.27l-.27-.037c-.577-.08-.89-.34-.89-.76 0-.513.427-.825 1.08-.825Zm16.075 0a.76.76 0 0 0-.68.378v-.313h-.555V28.3h.56v-1.445c0-.426.184-.664.54-.664.12-.001.24.02.35.065l.173-.54a1.199 1.199 0 0 0-.399-.07l.01.012Zm-6.837 2.327a1.303 1.303 0 0 1-.39-.978v-.011a1.303 1.303 0 0 1 1.375-1.348c.337-.018.668.092.928.307l-.27.453a1.133 1.133 0 0 0-.674-.232.828.828 0 0 0 0 1.65c.244-.002.48-.084.674-.231l.27.453c-.26.215-.591.324-.928.307a1.303 1.303 0 0 1-.985-.37Zm4.863-.978v-1.29h-.561v.314a.979.979 0 0 0-.809-.378 1.348 1.348 0 1 0 0 2.697.979.979 0 0 0 .809-.378v.313h.56v-1.278Zm-1.28-.733a.78.78 0 1 0-.058 1.558.78.78 0 0 0 .058-1.558Zm-7.576-.615a1.348 1.348 0 1 0 .038 2.696c.385.014.761-.115 1.057-.361l-.27-.416a1.225 1.225 0 0 1-.75.27.715.715 0 0 1-.77-.63h1.917v-.217c0-.809-.502-1.348-1.224-1.348l.002.006Zm.456.679a.64.64 0 0 0-.456-.178h-.01a.664.664 0 0 0-.686.626h1.349a.64.64 0 0 0-.197-.448Zm12.332-.059a.78.78 0 1 0-.058 1.558.78.78 0 0 0 .058-1.558Zm-19.745.733v-1.289h-.561v.313a.979.979 0 0 0-.809-.377 1.348 1.348 0 1 0 0 2.696.98.98 0 0 0 .809-.377v.312h.56V27.01Zm-1.28-.733a.78.78 0 1 0-.058 1.558.78.78 0 0 0 .058-1.558Zm23.238 1.647a.27.27 0 0 1 .187.073.25.25 0 0 1-.084.415.253.253 0 0 1-.102.022.27.27 0 0 1-.243-.156.253.253 0 0 1 .056-.28.268.268 0 0 1 .186-.074Zm.079.44a.193.193 0 0 1-.078.016v.003a.2.2 0 0 1-.079-.02.199.199 0 0 1-.064-.042.2.2 0 0 1 0-.27.204.204 0 0 1 .143-.06.196.196 0 0 1 .14.06.2.2 0 0 1 0 .27.201.201 0 0 1-.062.043Zm-.062-.305a.108.108 0 0 1 .07.022.067.067 0 0 1 .024.056.065.065 0 0 1-.019.049.095.095 0 0 1-.056.024l.078.09h-.062l-.073-.09h-.024v.09h-.052v-.238l.114-.003Zm-.06.11v-.064l.06.016a.056.056 0 0 1 .032 0 .027.027 0 0 1 0 .024.027.027 0 0 1 0 .025.056.056 0 0 1-.032 0h-.06Z" fill="#000"/><path fill="#FF5F00" d="M24.459 6.076h8.494v15.266h-8.494z"/><path d="M24.999 13.71a9.692 9.692 0 0 1 3.707-7.634 9.708 9.708 0 1 0 0 15.266A9.691 9.691 0 0 1 25 13.71Z" fill="#EB001B"/><path d="M44.414 13.71a9.708 9.708 0 0 1-15.708 7.632 9.708 9.708 0 0 0 0-15.266 9.708 9.708 0 0 1 15.708 7.632v.002Z" fill="#F79E1B"/></svg>
